material/.icons/material/serial-port.svg

<svg xmlns="http://www.w3.org/2000/svg" viewBox="0 0 24 24"><path d="M7 3h10v2h2v3h-3v6H8V8H5V5h2V3m10 6h2v5h-2V9m-6 6h2v7h-2v-7M5 9h2v5H5V9z"/></svg>

<?xml version="1.0" encoding="UTF-8"?><!DOCTYPE svg PUBLIC "-//W3C//DTD SVG 1.1//EN" "http://www.w3.org/Graphics/SVG/1.1/DTD/svg11.dtd"><svg xmlns="http://www.w3.org/2000/svg" xmlns:xlink="http://www.w3.org/1999/xlink" version="1.1" id="mdi-serial-port" width="24" height="24" viewBox="0 0 24 24"><path d="M7,3H17V5H19V8H16V14H8V8H5V5H7V3M17,9H19V14H17V9M11,15H13V22H11V15M5,9H7V14H5V9Z" /></svg>
